packages/core/src/svgs/boba.svg

<svg width="24" height="24" viewBox="0 0 24 24" fill="none" xmlns="http://www.w3.org/2000/svg">
<g clip-path="url(#clip0_31_7258)">
<path d="M0 0H24V24H0V0Z" fill="#F0F3FA"/>
<path d="M12.6816 14.2845H6.42871V5.14307H12.6816C14.8244 5.14307 16.5644 6.88307 16.5644 9.03021V10.3974C16.5644 11.4275 16.1555 12.4156 15.4274 13.1445C14.6994 13.8733 13.7118 14.2834 12.6816 14.2845Z" fill="#AEDB01"/>
<path d="M14.2887 18.8572H6.42871V14.2844C6.42871 11.7601 8.473 9.71582 10.9973 9.71582H14.2887C15.5009 9.71582 16.6635 10.1974 17.5207 11.0546C18.3779 11.9117 18.8594 13.0743 18.8594 14.2865C18.8594 15.4988 18.3779 16.6613 17.5207 17.5185C16.6635 18.3757 15.5009 18.8572 14.2887 18.8572Z" fill="#B0B1AC"/>
<path d="M16.5644 10.3201V10.3972C16.5644 11.4282 16.1549 12.4169 15.4259 13.1459C14.6969 13.8749 13.7082 14.2844 12.6773 14.2844H6.42871C6.42871 13.0727 6.91004 11.9107 7.76681 11.0539C8.62359 10.1972 9.78562 9.71582 10.9973 9.71582H14.2887C15.1201 9.71582 15.8959 9.93868 16.5644 10.3201Z" fill="#5D6D3C"/>
</g>
<defs>
<clipPath id="clip0_31_7258">
<rect width="24" height="24" fill="white"/>
</clipPath>
</defs>
</svg>

<svg xmlns="http://www.w3.org/2000/svg" width="24" height="24" fill="none" viewBox="0 0 24 24"><g clip-path="url(#a)"><path fill="#F0F3FA" d="M0 0h24v24H0z"/><path fill="#AEDB01" d="M12.682 14.285H6.429V5.143h6.253a3.886 3.886 0 0 1 3.882 3.887v1.367a3.887 3.887 0 0 1-3.882 3.887"/><path fill="#B0B1AC" d="M14.289 18.857h-7.86v-4.573a4.567 4.567 0 0 1 4.568-4.568h3.292a4.57 4.57 0 0 1 0 9.141"/><path fill="#5D6D3C" d="M16.564 10.32v.077a3.887 3.887 0 0 1-3.887 3.887H6.43a4.57 4.57 0 0 1 4.568-4.568h3.292c.831 0 1.607.223 2.275.604"/></g><defs><clipPath id="a"><path fill="#fff" d="M0 0h24v24H0z"/></clipPath></defs></svg>
